files/en-us/learn/javascript/client-side_web_apis/fetching_data/traditional-loading.svg

<svg xmlns="http://www.w3.org/2000/svg" xmlns:xlink="http://www.w3.org/1999/xlink" width="652" height="253" viewBox="-0.5 -0.5 652 253"><path fill="none" pointer-events="all" d="M78 0h98v98H78z"/><path d="M162.2 81.77v-6.61h-16.23v-3.79h27.55c.99 0 1.79-.73 1.79-1.63V1.64c0-.91-.8-1.64-1.79-1.64H80.14c-.99 0-1.79.73-1.79 1.64v68.09c0 .91.8 1.63 1.79 1.63h27.88v3.79H91.8v6.61L78 90.75V98h98v-7.25l-13.8-8.98zM84.9 64.93V5.92c0-.78.69-1.41 1.53-1.41h80.43c.85 0 1.54.63 1.54 1.41v59.01c0 .78-.7 1.41-1.54 1.41H86.44c-.85 0-1.54-.64-1.54-1.41zm-2.08 25.5 12.44-8.03h63.48l12.42 8.03H82.82z" pointer-events="all"/><path d="M550 18v10m20-10v10m-10-10v10" fill="none" stroke="#000" stroke-width="5" stroke-miterlimit="10" pointer-events="stroke"/><path fill="none" pointer-events="all" d="M78 0h98v98H78z"/><path d="M162.2 81.77v-6.61h-16.23v-3.79h27.55c.99 0 1.79-.73 1.79-1.63V1.64c0-.91-.8-1.64-1.79-1.64H80.14c-.99 0-1.79.73-1.79 1.64v68.09c0 .91.8 1.63 1.79 1.63h27.88v3.79H91.8v6.61L78 90.75V98h98v-7.25l-13.8-8.98zM84.9 64.93V5.92c0-.78.69-1.41 1.53-1.41h80.43c.85 0 1.54.63 1.54 1.41v59.01c0 .78-.7 1.41-1.54 1.41H86.44c-.85 0-1.54-.64-1.54-1.41zm-2.08 25.5 12.44-8.03h63.48l12.42 8.03H82.82z" pointer-events="all"/><path fill="#FFF" stroke="#000" stroke-width="5" pointer-events="all" d="M529 9h120v60H529z"/><path d="M541 18v10m20-10v10m-10-10v10" fill="none" stroke="#000" stroke-width="5" stroke-miterlimit="10" pointer-events="stroke"/><path d="M128 123h451.76" fill="none" stroke="#000" stroke-width="2" stroke-miterlimit="10" pointer-events="stroke"/><path d="m585.76 123-8 4 2-4-2-4z" stroke="#000" stroke-width="2" stroke-miterlimit="10" pointer-events="all"/><switch transform="translate(-.5 -.5)"><foreignObject style="overflow:visible;text-align:left" pointer-events="none" width="100%" height="100%" requiredFeatures="http://www.w3.org/TR/SVG11/feature#Extensibility"><div xmlns="http://www.w3.org/1999/xhtml" style="display:flex;align-items:unsafe center;justify-content:unsafe center;width:1px;height:1px;padding-top:124px;margin-left:365px"><div style="box-sizing:border-box;font-size:0;text-align:center" data-drawio-colors="color: rgb(0, 0, 0); background-color: rgb(255, 255, 255);"><div style="display:inline-block;font-size:11px;font-family:Helvetica;color:#000;line-height:1.2;pointer-events:all;background-color:#fff;white-space:nowrap"><font style="font-size:16px">Request page (HTML, JS, CSS, ...)</font><font style="font-size:15px"/></div></div></div></foreignObject><text x="365" y="127" font-family="Helvetica" font-size="11" text-anchor="middle"> Request page (HTML, JS, CSS, ...) </text></switch><path d="M128 200h451.76" fill="none" stroke="#000" stroke-width="2" stroke-miterlimit="10" pointer-events="stroke"/><path d="m585.76 200-8 4 2-4-2-4z" stroke="#000" stroke-width="2" stroke-miterlimit="10" pointer-events="all"/><switch transform="translate(-.5 -.5)"><foreignObject style="overflow:visible;text-align:left" pointer-events="none" width="100%" height="100%" requiredFeatures="http://www.w3.org/TR/SVG11/feature#Extensibility"><div xmlns="http://www.w3.org/1999/xhtml" style="display:flex;align-items:unsafe center;justify-content:unsafe center;width:1px;height:1px;padding-top:201px;margin-left:365px"><div style="box-sizing:border-box;font-size:0;text-align:center" data-drawio-colors="color: rgb(0, 0, 0); background-color: rgb(255, 255, 255);"><div style="display:inline-block;font-size:11px;font-family:Helvetica;color:#000;line-height:1.2;pointer-events:all;background-color:#fff;white-space:nowrap"><font style="font-size:16px">Request page (HTML, JS, CSS, ...)</font><font style="font-size:15px"/><font style="font-size:15px"/></div></div></div></foreignObject><text x="365" y="204" font-family="Helvetica" font-size="11" text-anchor="middle"> Request page (HTML, JS, CSS, ...) </text></switch><path d="m127 250-.5-152M588 250V69" fill="none" stroke="#000" stroke-width="3" stroke-miterlimit="10" stroke-dasharray="9 9" pointer-events="stroke"/><path d="M588 150H136.24" fill="none" stroke="#000" stroke-width="2" stroke-miterlimit="10" pointer-events="stroke"/><path d="m130.24 150 8-4-2 4 2 4z" stroke="#000" stroke-width="2" stroke-miterlimit="10" pointer-events="all"/><switch transform="translate(-.5 -.5)"><foreignObject style="overflow:visible;text-align:left" pointer-events="none" width="100%" height="100%" requiredFeatures="http://www.w3.org/TR/SVG11/feature#Extensibility"><div xmlns="http://www.w3.org/1999/xhtml" style="display:flex;align-items:unsafe center;justify-content:unsafe center;width:1px;height:1px;padding-top:151px;margin-left:353px"><div style="box-sizing:border-box;font-size:0;text-align:center" data-drawio-colors="color: rgb(0, 0, 0); background-color: rgb(255, 255, 255);"><div style="display:inline-block;font-size:11px;font-family:Helvetica;color:#000;line-height:1.2;pointer-events:all;background-color:#fff;white-space:nowrap"><font style="font-size:15px"/></div></div></div></foreignObject></switch><path d="M588 230H136.24" fill="none" stroke="#000" stroke-width="2" stroke-miterlimit="10" pointer-events="stroke"/><path d="m130.24 230 8-4-2 4 2 4z" stroke="#000" stroke-width="2" stroke-miterlimit="10" pointer-events="all"/><switch transform="translate(-.5 -.5)"><foreignObject style="overflow:visible;text-align:left" pointer-events="none" width="100%" height="100%" requiredFeatures="http://www.w3.org/TR/SVG11/feature#Extensibility"><div xmlns="http://www.w3.org/1999/xhtml" style="display:flex;align-items:unsafe center;justify-content:unsafe center;width:1px;height:1px;padding-top:231px;margin-left:353px"><div style="box-sizing:border-box;font-size:0;text-align:center" data-drawio-colors="color: rgb(0, 0, 0); background-color: rgb(255, 255, 255);"><div style="display:inline-block;font-size:11px;font-family:Helvetica;color:#000;line-height:1.2;pointer-events:all;background-color:#fff;white-space:nowrap"><font style="font-size:15px"/></div></div></div></foreignObject></switch><path d="M8 180h101.76" fill="none" stroke="#000" stroke-width="2" stroke-miterlimit="10" pointer-events="stroke"/><path d="m115.76 180-8 4 2-4-2-4z" stroke="#000" stroke-width="2" stroke-miterlimit="10" pointer-events="all"/><switch transform="translate(-.5 -.5)"><foreignObject style="overflow:visible;text-align:left" pointer-events="none" width="100%" height="100%" requiredFeatures="http://www.w3.org/TR/SVG11/feature#Extensibility"><div xmlns="http://www.w3.org/1999/xhtml" style="display:flex;align-items:unsafe center;justify-content:unsafe center;width:1px;height:1px;padding-top:181px;margin-left:65px"><div style="box-sizing:border-box;font-size:0;text-align:center" data-drawio-colors="color: rgb(0, 0, 0); background-color: rgb(255, 255, 255);"><div style="display:inline-block;font-size:11px;font-family:Helvetica;color:#000;line-height:1.2;pointer-events:all;background-color:#fff;white-space:nowrap"><font style="font-size:15px"/></div></div></div></foreignObject></switch><switch transform="translate(-.5 -.5)"><foreignObject style="overflow:visible;text-align:left" pointer-events="none" width="100%" height="100%" requiredFeatures="http://www.w3.org/TR/SVG11/feature#Extensibility"><div xmlns="http://www.w3.org/1999/xhtml" style="display:flex;align-items:unsafe center;justify-content:unsafe center;width:1px;height:1px;padding-top:180px;margin-left:57px"><div style="box-sizing:border-box;font-size:0;text-align:center" data-drawio-colors="color: rgb(0, 0, 0); background-color: rgb(255, 255, 255);"><div style="display:inline-block;font-size:16px;font-family:Helvetica;color:#000;line-height:1.2;pointer-events:all;background-color:#fff;white-space:nowrap">navigate</div></div></div></foreignObject><text x="57" y="184" font-family="Helvetica" font-size="16" text-anchor="middle"> navigate  </text></switch><switch><a transform="translate(0 -5)" xlink:href="https://www.diagrams.net/doc/faq/svg-export-text-problems" target="_blank"><text text-anchor="middle" font-size="10" x="50%" y="100%">Text is not SVG - cannot display</text></a></switch></svg>

<?xml version="1.0" encoding="UTF-8"?>
<!-- Do not edit this file with editors other than diagrams.net -->
<!DOCTYPE svg PUBLIC "-//W3C//DTD SVG 1.1//EN" "http://www.w3.org/Graphics/SVG/1.1/DTD/svg11.dtd">
<svg xmlns="http://www.w3.org/2000/svg" xmlns:xlink="http://www.w3.org/1999/xlink" version="1.1" width="652px" height="253px" viewBox="-0.5 -0.5 652 253" content="&lt;mxfile host=&quot;app.diagrams.net&quot; modified=&quot;2022-03-08T23:23:37.860Z&quot; agent=&quot;5.0 (Macintosh)&quot; etag=&quot;jig45zLvsaMunS_nL_Fi&quot; version=&quot;16.4.2&quot; type=&quot;device&quot; pages=&quot;3&quot;&gt;&lt;diagram id=&quot;uixlyuQeuicJ-Sln99HT&quot; name=&quot;Page-1&quot;&gt;7VrbcpswEP0aZtoHMwgZjB9tJ00mTTpp3JlMH2WQQQ0gIuRL+vUVIMCAXV9iO+PYeYjFkbRa9mhXy4ICB8H8hqHIe6AO9hVdc+YKvFJ0vQM18T8B3jKgDcwMcBlxMgiUwJD8xRKU89wJcXBcGcgp9TmJqqBNwxDbvIIhxuisOmxM/eqqEXJxAxjayG+iz8ThXoZahlbit5i4Xr4y0GRPgPLBEog95NDZAgSvFThglPKsFcwH2E9sl9slm/dtRW+hGMMh32TCwO5/n7uz38+91lX0eue8TH/8bOmZlCnyJ/KGpbL8LbeA0DtKmsHcTRhWY+KGscqx7ak2DaIJx0yBfY8HvhgERDOiJBTg9VQoFktsTHx/QH3KUplQS/8EHnNGX3DeE9JQrNSfYsaJoOAejbD/SGPCCQ1F94hyToOFAT1f6CI6OI0EiuSVjcNMp/gFczshIVlJ3qiYiecrLQgKXsR+xjTAnL2JIXJCVzIpt7IlL2flvuhaGeQtbIkcQ3InuoXckizRkHxtwV1nPXc4dHqJE5S2XeCJ0UnoYEfaJ2Mi3+NGYTHsNBxkrb0WLJI7yqJFcoxhH3EyrYpfZia5wmOysUo6DFOv8FE3dEwnzMZy0qJjrJEDtJogjpiLeUNQSlpx17vzaJ07j9aeeLQ+lsfuufPY2ROPnaPxeAfh5F6fuTfD8BoP/oz7d8+vLXA5E0/hTFzK3Qb5TNXNZh7heBghO+mdCTKrvK3ywnfZzGiDqtG6DaMBfYmfmtqBrAbPPXIZcD+Rqybn2JGrfe48dvbEY+djeTTOnUdzTzyaH8ujuRWPto/imNibU6mfAJWgXU0QdA3uxqWprRF0YC6XPW2bPk/yOJrqWZJqvk5o3tGK05JWTwwAZjQvO0XLlb8oSLKOcBQnP0/4dYJjrsjSlK59uf31cK/oQmvtbpj9DoayoarqVyVJFTJNxI1lyhSit1PQWKFgKmXE6khjufreFrsyzVerW7qRk9ZT14A4TiKjz7BQDo1SeVqeRad0G33FuPpfNibrgXKyUlThFh1jtc+uTN00VdPb+vs8Ix9Cx+MYH2SvbldROI+4Y9WS553jTl3QgePOsqrCJe4cbrlPGdSsTxDU8jdCe8qKE5Ll6yZgNkIcFIiDYi8dDk4h3sFuJUxBuGO8A9BSjYoo0Dly/W2DAtz5El0/j3Ymui4ItLvHpVm/ZCmN5GJnr62nO3VBhyZzWQnx8vSx9UGdOcWpn9Tb1SHPwrMh2JNnNwQd2rOXFSMvnr29Z7c/g2dfKpoF4/lJW38rt3mivUbQoR17DxXNi2PnPnHqjr2sZFgtEIVoSlzEcR1Xig8cj0pk47EuQjYJ3Sfp71oJ3eMxz0cdnf6WpupWxc/Bx+0FcVl+b5oNLz/ahdf/AA==&lt;/diagram&gt;&lt;diagram id=&quot;47ABsTPo1Al7aYfryK2J&quot; name=&quot;Page-2&quot;&gt;7VrbcqM4EP0aqnYfQklgsP1oezKbzSbZVDxVW/sogwxUAGFJ+JKvXwHCXB0Hj5lZT5yHWG6JltSnT6tbRtFnwfYPiiL3kdjYVzRgbxX9i6JpQx2I/4lglwkG0MwEDvXsTAQLwdx7w1Ion3Niz8asMpAT4nMvqgotEobY4hUZopRsqsOWxK/OGiEHNwRzC/lN6T+ezd1MOjJAIb/DnuPmM0MgewKUD5YC5iKbbEoi/VbRZ5QQnrWC7Qz7ie1yuxCXPT9Nvtl/3fLIftveu7uX2U2m7GuXR/ZboDjk51WtZarXyI+lveRe+S43oNh2lDSDrZM4iMo8J2Qqx5arWiSIYo6pok9dHvhiEBTNiHihEN6uxWqZlC09358Rn9BUpw7SPyFnnJJXnPeEJBQzTdeYck8g+IAW2H8mzOMeCUX3gnBOgtKAiS/WIjo4iYQUyW8WDrM1sVfMrQTDZCa5UfEk3tY844hZ4R5rwRFMAszpTjwntYyld0h6jOTXTeFr41EmcktulsuQ9G5nr7dAUDQkiB0A1Y8DSkkc2tiWdtm4HsfzCFlJ70YgXAUzAyhnjtGjIY0BrFpy3LAkzKlYNqUJejLl4LgpcWhPkhhV+G7JdFU7HzIkthvx6zQzluxktJgpl1HsI+6tq3O22U7O8JywuYSSoVdQqjsyIzG1sHyoHI2O6IGgpogj6mDeUJQiud/16eAaV3BbQBmeCdzhzwXXvILbAop5JnDNnwvusBO4lo8Y86yP46tdKr5wUM1ENKCfBrAJjijqGeBRC8Cmz5MskqTrLJA2VzHJO25YWntMxABoRtuiU7Qc+YmCJL0JFyz5eMGrGDOe1xAa+O3u2+ODoolVg/t59jmby4aqqr8rSfqRrURsLFvMXnW3BRoHFphqWdC6pDFd3eGFq6bZctXPGxlxPXEOPNtOdEwpFotDi1QfyHP4FG5jqhhf3kv7ZOEmH1b25dJRtgzb2SK1AxVoA+37mJEPIcslw734KvxAAXWNRkkQGdXS9JOjUV1Rz9EItlVU/YYjG3HUd6CpTF0KbJ8k9mS8vZzg84bv/15NV6HxaPk7w+VfnyZ/yvuec6W5Ccjy+g6ajUCkC4mNmJsOhxcblfSRalTCiT48MQ1uqoJ1VeeLTK3wwyv8HeGvnyX68EyHEhyM+4J+i+/Ym/Y6vgGrp3/h0/NuAcKOzP88WUcjWdBPBLiRvtQV9QxwG7evJcZ7x/xhnlzOKd+6h27X0J+X6zo8E9cbinrmettV9JXrnbk++AW43u3i+vNwXaudxvXf/D6etB9R1DPV2+6ur1TvTHXzF6B66y135VaGYUQtt/Wu5seD2CgPI2R5ofMiqQ4K0QNe8nzUj4b+BqjaqMJw+H/3g/HxkG/FdL0vvLvF//er+os9Dxop27nqvMaNwIEDQUCAdqVhkjDvHGDtCz60rsb4YWW8aGQrOG/R2bxWiCMbcazkP5HVHFOwOjlUjrxCVPfBg0HhO18g0oBZs7EsncrvYg2aPln3nQ+8QCS+Fu/9ZeYvXp7Ub/8D&lt;/diagram&gt;&lt;diagram id=&quot;MuS7bre-4nLzpYkRONo0&quot; name=&quot;Page-3&quot;&gt;7VrbcpswEP0aP8aDkLn4MXGSdjrpNJPMpI8dGWTQBBCR5Ev69RUgzDWxcY0zTshDDEfSLuzZXa3WHsFZuPnGUOz/pC4ORrrmbkbweqTrFtTk/wR4zYAJMDPAY8TNIFAAj+QvVqBa5y2Ji3lloqA0ECSugg6NIuyICoYYo+vqtAUNqlpj5OEG8OigoIn+Jq7wM9Q2tAL/jonn55qBpkZClE9WAPeRS9clCN6M4IxRKrKrcDPDQWK73C53v+zo9/zZnyEn+hPcPv2wzKeLTNhtlyXbV2A4EscVrWeiVyhYKnupdxWvuQHla8fJZbjxEgcZc+JFfCyw448dGsZLgdkIXvkiDOQkIC9jSiIJ3qzk03KFLUgQzGhAWSoTaumfxLlg9BnnIxGNpKarFWaCSAbv0BwH95QTQWgkh+dUCBqWJlwG8lnkgKCxRJG6c3CUPRN/xsJJOEw0qReVK/Gm5hk7zAq2XMsYwTTEgr3KdUrKVHmHCg9b3a4LX5vaGeSX3CzHkPJubyu3YFBeKBI7EAp3E8roMnKxq+yy9onAjzFyktG1ZLhKZkZQHjlGj4Y0JqBqyWnDkiAPxbIpTa0nU052mxJH7mWSowrfLZmuaue3DIndRv46zIwlOxktZsoxhgMkyKqqs812SsN9Es0llgxYYanuyJwumYPVonI22iEHaDVBAjEPi4aglMntWx9OrjGQ20KKdSRyrY8l1xzIbSHFPBK55seSa3Ui1wkQ58TZn1/9XPkFk2olomvwMIJNbYegngm2Wwg2A5FUkTR9zoJp82VJ84ELnp49LuUEYMabYlBeeeoThUl5E8158vGAX5aYi/wMkdQWmRr51Jmm7bpu2o03tKdS5qyONNTVvVn6YVoKV524Ue7Wq+KQuG4i44ph+XBonsrT8gI95dK4GhnX79V06lSmFo+2Z6GdoWC1h4KSro01faL/n9vnU+hiwXEvjjgdMs1+mcauleAHZ5q6oJ4zTd6jOHmq6TfPVFSX8toXST3TT5B6AOiUe3aVsAnJqjUHzEYighJxEffT6eBssxK0x0YlnUDrwBK3KQrURfWdmfZozA38v7uZQOtIuxKYTE/L/R49vC9ZdzTKBXggw40Cpi6ob4bbWovDIaPzTp9Fyrlv9d1akV833CE4Urg3BPUd7m39yCHcu4e78RnCfehftkepXtuT69/rHby51wX1He1H6F8O0Z4HyrlHe1sPsdqg4Rgxx29t25yexsZBMUYOibwHFe1aAd3hhchnnZz8C22s25UoBx/nCfK2+BFQNr34JRW8+Qc=&lt;/diagram&gt;&lt;/mxfile&gt;"><defs/><g><rect x="78" y="0" width="98" height="98" fill="none" stroke="none" pointer-events="all"/><path d="M 162.2 81.77 L 162.2 75.16 L 145.97 75.16 L 145.97 71.37 L 173.52 71.37 C 174.51 71.37 175.31 70.64 175.31 69.74 L 175.31 1.64 C 175.31 0.73 174.51 0 173.52 0 L 80.14 0 C 79.15 0 78.35 0.73 78.35 1.64 L 78.35 69.73 C 78.35 70.64 79.15 71.36 80.14 71.36 L 108.02 71.36 L 108.02 75.15 L 91.8 75.15 L 91.8 81.76 L 78 90.75 L 78 98 L 176 98 L 176 90.75 L 162.2 81.77 Z M 84.9 64.93 L 84.9 5.92 C 84.9 5.14 85.59 4.51 86.43 4.51 L 166.86 4.51 C 167.71 4.51 168.4 5.14 168.4 5.92 L 168.4 64.93 C 168.4 65.71 167.7 66.34 166.86 66.34 L 86.44 66.34 C 85.59 66.34 84.9 65.7 84.9 64.93 Z M 82.82 90.43 L 95.26 82.4 L 158.74 82.4 L 171.16 90.43 L 82.82 90.43 Z" fill="#000000" stroke="none" pointer-events="all"/><path d="M 550 18 L 550 28" fill="none" stroke="rgb(0, 0, 0)" stroke-width="5" stroke-miterlimit="10" pointer-events="stroke"/><path d="M 570 18 L 570 28" fill="none" stroke="rgb(0, 0, 0)" stroke-width="5" stroke-miterlimit="10" pointer-events="stroke"/><path d="M 560 18 L 560 28" fill="none" stroke="rgb(0, 0, 0)" stroke-width="5" stroke-miterlimit="10" pointer-events="stroke"/><rect x="78" y="0" width="98" height="98" fill="none" stroke="none" pointer-events="all"/><path d="M 162.2 81.77 L 162.2 75.16 L 145.97 75.16 L 145.97 71.37 L 173.52 71.37 C 174.51 71.37 175.31 70.64 175.31 69.74 L 175.31 1.64 C 175.31 0.73 174.51 0 173.52 0 L 80.14 0 C 79.15 0 78.35 0.73 78.35 1.64 L 78.35 69.73 C 78.35 70.64 79.15 71.36 80.14 71.36 L 108.02 71.36 L 108.02 75.15 L 91.8 75.15 L 91.8 81.76 L 78 90.75 L 78 98 L 176 98 L 176 90.75 L 162.2 81.77 Z M 84.9 64.93 L 84.9 5.92 C 84.9 5.14 85.59 4.51 86.43 4.51 L 166.86 4.51 C 167.71 4.51 168.4 5.14 168.4 5.92 L 168.4 64.93 C 168.4 65.71 167.7 66.34 166.86 66.34 L 86.44 66.34 C 85.59 66.34 84.9 65.7 84.9 64.93 Z M 82.82 90.43 L 95.26 82.4 L 158.74 82.4 L 171.16 90.43 L 82.82 90.43 Z" fill="#000000" stroke="none" pointer-events="all"/><rect x="529" y="9" width="120" height="60" fill="rgb(255, 255, 255)" stroke="rgb(0, 0, 0)" stroke-width="5" pointer-events="all"/><path d="M 541 18 L 541 28" fill="none" stroke="rgb(0, 0, 0)" stroke-width="5" stroke-miterlimit="10" pointer-events="stroke"/><path d="M 561 18 L 561 28" fill="none" stroke="rgb(0, 0, 0)" stroke-width="5" stroke-miterlimit="10" pointer-events="stroke"/><path d="M 551 18 L 551 28" fill="none" stroke="rgb(0, 0, 0)" stroke-width="5" stroke-miterlimit="10" pointer-events="stroke"/><path d="M 128 123 L 579.76 123" fill="none" stroke="rgb(0, 0, 0)" stroke-width="2" stroke-miterlimit="10" pointer-events="stroke"/><path d="M 585.76 123 L 577.76 127 L 579.76 123 L 577.76 119 Z" fill="rgb(0, 0, 0)" stroke="rgb(0, 0, 0)" stroke-width="2" stroke-miterlimit="10" pointer-events="all"/><g transform="translate(-0.5 -0.5)"><switch><foreignObject style="overflow: visible; text-align: left;" pointer-events="none" width="100%" height="100%" requiredFeatures="http://www.w3.org/TR/SVG11/feature#Extensibility"><div xmlns="http://www.w3.org/1999/xhtml" style="display: flex; align-items: unsafe center; justify-content: unsafe center; width: 1px; height: 1px; padding-top: 124px; margin-left: 365px;"><div style="box-sizing: border-box; font-size: 0px; text-align: center;" data-drawio-colors="color: rgb(0, 0, 0); background-color: rgb(255, 255, 255); "><div style="display: inline-block; font-size: 11px; font-family: Helvetica; color: rgb(0, 0, 0); line-height: 1.2; pointer-events: all; background-color: rgb(255, 255, 255); white-space: nowrap;"><font style="font-size: 16px"> Request page (HTML, JS, CSS, ...) </font><font style="font-size: 15px"><br /></font></div></div></div></foreignObject><text x="365" y="127" fill="rgb(0, 0, 0)" font-family="Helvetica" font-size="11px" text-anchor="middle"> Request page (HTML, JS, CSS, ...) </text></switch></g><path d="M 128 200 L 579.76 200" fill="none" stroke="rgb(0, 0, 0)" stroke-width="2" stroke-miterlimit="10" pointer-events="stroke"/><path d="M 585.76 200 L 577.76 204 L 579.76 200 L 577.76 196 Z" fill="rgb(0, 0, 0)" stroke="rgb(0, 0, 0)" stroke-width="2" stroke-miterlimit="10" pointer-events="all"/><g transform="translate(-0.5 -0.5)"><switch><foreignObject style="overflow: visible; text-align: left;" pointer-events="none" width="100%" height="100%" requiredFeatures="http://www.w3.org/TR/SVG11/feature#Extensibility"><div xmlns="http://www.w3.org/1999/xhtml" style="display: flex; align-items: unsafe center; justify-content: unsafe center; width: 1px; height: 1px; padding-top: 201px; margin-left: 365px;"><div style="box-sizing: border-box; font-size: 0px; text-align: center;" data-drawio-colors="color: rgb(0, 0, 0); background-color: rgb(255, 255, 255); "><div style="display: inline-block; font-size: 11px; font-family: Helvetica; color: rgb(0, 0, 0); line-height: 1.2; pointer-events: all; background-color: rgb(255, 255, 255); white-space: nowrap;"><font style="font-size: 16px"> Request page (HTML, JS, CSS, ...) </font><font style="font-size: 15px"><br /></font><font style="font-size: 15px"></font></div></div></div></foreignObject><text x="365" y="204" fill="rgb(0, 0, 0)" font-family="Helvetica" font-size="11px" text-anchor="middle"> Request page (HTML, JS, CSS, ...) </text></switch></g><path d="M 127 250 L 126.5 98" fill="none" stroke="rgb(0, 0, 0)" stroke-width="3" stroke-miterlimit="10" stroke-dasharray="9 9" pointer-events="stroke"/><path d="M 588 250 L 588 69" fill="none" stroke="rgb(0, 0, 0)" stroke-width="3" stroke-miterlimit="10" stroke-dasharray="9 9" pointer-events="stroke"/><path d="M 588 150 L 136.24 150" fill="none" stroke="rgb(0, 0, 0)" stroke-width="2" stroke-miterlimit="10" pointer-events="stroke"/><path d="M 130.24 150 L 138.24 146 L 136.24 150 L 138.24 154 Z" fill="rgb(0, 0, 0)" stroke="rgb(0, 0, 0)" stroke-width="2" stroke-miterlimit="10" pointer-events="all"/><g transform="translate(-0.5 -0.5)"><switch><foreignObject style="overflow: visible; text-align: left;" pointer-events="none" width="100%" height="100%" requiredFeatures="http://www.w3.org/TR/SVG11/feature#Extensibility"><div xmlns="http://www.w3.org/1999/xhtml" style="display: flex; align-items: unsafe center; justify-content: unsafe center; width: 1px; height: 1px; padding-top: 151px; margin-left: 353px;"><div style="box-sizing: border-box; font-size: 0px; text-align: center;" data-drawio-colors="color: rgb(0, 0, 0); background-color: rgb(255, 255, 255); "><div style="display: inline-block; font-size: 11px; font-family: Helvetica; color: rgb(0, 0, 0); line-height: 1.2; pointer-events: all; background-color: rgb(255, 255, 255); white-space: nowrap;"><font style="font-size: 15px"><br /></font></div></div></div></foreignObject><text x="353" y="154" fill="rgb(0, 0, 0)" font-family="Helvetica" font-size="11px" text-anchor="middle"></text></switch></g><path d="M 588 230 L 136.24 230" fill="none" stroke="rgb(0, 0, 0)" stroke-width="2" stroke-miterlimit="10" pointer-events="stroke"/><path d="M 130.24 230 L 138.24 226 L 136.24 230 L 138.24 234 Z" fill="rgb(0, 0, 0)" stroke="rgb(0, 0, 0)" stroke-width="2" stroke-miterlimit="10" pointer-events="all"/><g transform="translate(-0.5 -0.5)"><switch><foreignObject style="overflow: visible; text-align: left;" pointer-events="none" width="100%" height="100%" requiredFeatures="http://www.w3.org/TR/SVG11/feature#Extensibility"><div xmlns="http://www.w3.org/1999/xhtml" style="display: flex; align-items: unsafe center; justify-content: unsafe center; width: 1px; height: 1px; padding-top: 231px; margin-left: 353px;"><div style="box-sizing: border-box; font-size: 0px; text-align: center;" data-drawio-colors="color: rgb(0, 0, 0); background-color: rgb(255, 255, 255); "><div style="display: inline-block; font-size: 11px; font-family: Helvetica; color: rgb(0, 0, 0); line-height: 1.2; pointer-events: all; background-color: rgb(255, 255, 255); white-space: nowrap;"><font style="font-size: 15px"><br /></font></div></div></div></foreignObject><text x="353" y="234" fill="rgb(0, 0, 0)" font-family="Helvetica" font-size="11px" text-anchor="middle"></text></switch></g><path d="M 8 180 L 109.76 180" fill="none" stroke="rgb(0, 0, 0)" stroke-width="2" stroke-miterlimit="10" pointer-events="stroke"/><path d="M 115.76 180 L 107.76 184 L 109.76 180 L 107.76 176 Z" fill="rgb(0, 0, 0)" stroke="rgb(0, 0, 0)" stroke-width="2" stroke-miterlimit="10" pointer-events="all"/><g transform="translate(-0.5 -0.5)"><switch><foreignObject style="overflow: visible; text-align: left;" pointer-events="none" width="100%" height="100%" requiredFeatures="http://www.w3.org/TR/SVG11/feature#Extensibility"><div xmlns="http://www.w3.org/1999/xhtml" style="display: flex; align-items: unsafe center; justify-content: unsafe center; width: 1px; height: 1px; padding-top: 181px; margin-left: 65px;"><div style="box-sizing: border-box; font-size: 0px; text-align: center;" data-drawio-colors="color: rgb(0, 0, 0); background-color: rgb(255, 255, 255); "><div style="display: inline-block; font-size: 11px; font-family: Helvetica; color: rgb(0, 0, 0); line-height: 1.2; pointer-events: all; background-color: rgb(255, 255, 255); white-space: nowrap;"><font style="font-size: 15px"><br /></font></div></div></div></foreignObject><text x="65" y="184" fill="rgb(0, 0, 0)" font-family="Helvetica" font-size="11px" text-anchor="middle"></text></switch></g><g transform="translate(-0.5 -0.5)"><switch><foreignObject style="overflow: visible; text-align: left;" pointer-events="none" width="100%" height="100%" requiredFeatures="http://www.w3.org/TR/SVG11/feature#Extensibility"><div xmlns="http://www.w3.org/1999/xhtml" style="display: flex; align-items: unsafe center; justify-content: unsafe center; width: 1px; height: 1px; padding-top: 180px; margin-left: 57px;"><div style="box-sizing: border-box; font-size: 0px; text-align: center;" data-drawio-colors="color: rgb(0, 0, 0); background-color: rgb(255, 255, 255); "><div style="display: inline-block; font-size: 16px; font-family: Helvetica; color: rgb(0, 0, 0); line-height: 1.2; pointer-events: all; background-color: rgb(255, 255, 255); white-space: nowrap;"> navigate  </div></div></div></foreignObject><text x="57" y="184" fill="rgb(0, 0, 0)" font-family="Helvetica" font-size="16px" text-anchor="middle"> navigate  </text></switch></g></g><switch><g requiredFeatures="http://www.w3.org/TR/SVG11/feature#Extensibility"/><a transform="translate(0,-5)" xlink:href="https://www.diagrams.net/doc/faq/svg-export-text-problems" target="_blank"><text text-anchor="middle" font-size="10px" x="50%" y="100%">Text is not SVG - cannot display</text></a></switch></svg>
